X:1
T:The Humours Of Scariff
R:reel
M:4/4
L:1/8
K:Ddor
|:Adde f2ed|cAGc AcGc|Adde f2ed|cAGE EDD2:|
|ecgc acgc|ecgc eaag|ecgc acgc|edcd ed~d2|
|ecgc acgc|ecgc eaag|~a2ag efed|cAGE EDD2|